src/components/Home/icons/camera.svg

<svg width="22" height="19" viewBox="0 0 22 19" xmlns="http://www.w3.org/2000/svg">
  <path fill-rule="evenodd" clip-rule="evenodd" d="M21.5625 9C21.5647 6.62986 19.9786 4.55217 17.6917 3.92953C15.4048 3.3069 12.9843 4.29375 11.7847 6.33787C10.585 8.382 10.9037 10.9764 12.5625 12.6694V18C12.5623 18.2601 12.6969 18.5017 12.9181 18.6384C13.1393 18.7752 13.4155 18.7876 13.6481 18.6712L16.3125 17.3381L18.9769 18.6712C19.2095 18.7876 19.4857 18.7752 19.7069 18.6384C19.9281 18.5017 20.0627 18.2601 20.0625 18V12.6694C21.0244 11.6903 21.5631 10.3725 21.5625 9ZM16.3125 5.25C18.3836 5.25 20.0625 6.92893 20.0625 9C20.0625 11.0711 18.3836 12.75 16.3125 12.75C14.2414 12.75 12.5625 11.0711 12.5625 9C12.5625 6.92893 14.2414 5.25 16.3125 5.25ZM16.6481 15.8288C16.4369 15.723 16.1881 15.723 15.9769 15.8288L14.0625 16.7869V13.7428C15.4863 14.4191 17.1387 14.4191 18.5625 13.7428V16.7869L16.6481 15.8288ZM11.0625 15C11.0625 15.4142 10.7267 15.75 10.3125 15.75H2.0625C1.23407 15.75 0.5625 15.0784 0.5625 14.25V2.25C0.5625 1.42157 1.23407 0.75 2.0625 0.75H18.5625C19.3909 0.75 20.0625 1.42157 20.0625 2.25C20.0625 2.66421 19.7267 3 19.3125 3C18.8983 3 18.5625 2.66421 18.5625 2.25H2.0625V14.25H10.3125C10.7267 14.25 11.0625 14.5858 11.0625 15ZM9.5625 9.75C9.5625 10.1642 9.22671 10.5 8.8125 10.5H5.0625C4.64829 10.5 4.3125 10.1642 4.3125 9.75C4.3125 9.33579 4.64829 9 5.0625 9H8.8125C9.22671 9 9.5625 9.33579 9.5625 9.75ZM9.5625 6.75C9.5625 7.16421 9.22671 7.5 8.8125 7.5H5.0625C4.64829 7.5 4.3125 7.16421 4.3125 6.75C4.3125 6.33579 4.64829 6 5.0625 6H8.8125C9.22671 6 9.5625 6.33579 9.5625 6.75Z" />
</svg>

<svg xmlns="http://www.w3.org/2000/svg" width="22" height="19">
  <path fill-rule="evenodd" d="M21.563 9a5.25 5.25 0 1 0-9 3.67V18a.75.75 0 0 0 1.085.671l2.665-1.333 2.664 1.333A.75.75 0 0 0 20.062 18v-5.33a5.233 5.233 0 0 0 1.5-3.67Zm-5.25-3.75a3.75 3.75 0 1 1 0 7.5 3.75 3.75 0 0 1 0-7.5Zm.335 10.579a.75.75 0 0 0-.671 0l-1.915.958v-3.044a5.244 5.244 0 0 0 4.5 0v3.044l-1.914-.958ZM11.063 15a.75.75 0 0 1-.75.75h-8.25a1.5 1.5 0 0 1-1.5-1.5v-12a1.5 1.5 0 0 1 1.5-1.5h16.5a1.5 1.5 0 0 1 1.5 1.5.75.75 0 0 1-1.5 0h-16.5v12h8.25a.75.75 0 0 1 .75.75Zm-1.5-5.25a.75.75 0 0 1-.75.75h-3.75a.75.75 0 0 1 0-1.5h3.75a.75.75 0 0 1 .75.75Zm0-3a.75.75 0 0 1-.75.75h-3.75a.75.75 0 0 1 0-1.5h3.75a.75.75 0 0 1 .75.75Z" clip-rule="evenodd"/>
</svg>
